X:1
T:G minor Bartholemew Brown, 1804
T:Anne Steele, 1760 On the death of a child   86. 86. (C. M.)
T:Northfield Transcribed from The Bridgewater Collection, 1804.
%%score [ 1 2 3 4 ]
L:1/8
M:4/4
K:Bb
V:1 treble nm="Tr." snm="Tr."
V:2 treble nm="C." snm="C."
V:3 treble-8 nm="T." snm="T."
V:4 bass nm="B." snm="B."
V:1
 G4 | B4 G4 | ^F6 BA | G4 A4 | d6 dc | B4 G4 | (B2 A2) (3(G2 A2 B2) | !fermata!A6 A2 | %8
 (B3 A) (G3 A) | B6 AG | (G3 A) (B3 c) | d6 B>c | (d2 e2 dB) AG | G4 ^F4 | G8 |] %15
V:2
 D4 | D4 D4 | ^F6 D2 | E4 D4 | D6 F2 | G4 G4 | F4 D4 | !fermata!D6 D2 | D4 E4 | D6 D2 | %10
w: 1.~Life|is a|span, a|flee- ting|hour, How|soon the|va- por|flies! Man|is a|ten- der,|
 D4 (G2 AG) | F6 D2 | D4 F4 | D4 D4 | D8 |] %15
w: tran- sient * *|flower, That|e'en in|bloo- ming|dies.|
V:3
 G4 | G4 B4 | A6 GF | G4 ^F4 | B6 c2 | d4 G4 | (d2 edcB) AG | !fermata!^F6 F2 | (G3 A) (B3 c) | %9
 d6 cB | (B3 c) (d3 e) | f6 d>e | (f2 g2 fd) cB | B4 A4 | G8 |] %15
V:4
"^_____________________________________\nEdited by B. C. Johnston, 2015\n   1. Measure 3, \nCounter\n: changed F to F-sharp.\n   2. Measure 4, \nBass\n: changed F to F-sharp.\n   3. Measure 8: \nfermata\n on first note in \nTreble\n, extended to other parts,\n   4. Measure 13, \nCounter\n: changed G to F.\nThis edition released into Pubic Domain." G,4 | %1
 G,4 G,4 | D,6 D,2 | C,4 ^F,4 | B,,6 D,2 | G,4 E,4 | D,4 G,,4 | !fermata!D,6 ^F,2 | %8
 (G,3 F,) (E,3 D,) | G,6 G,2 | G,4 (F,2 E,2) | D,6 D,>C, | B,,4 F,4 | G,4 D,4 | G,,8 |] %15

